;FLAVOR:Marlin
;TIME:13378
;Filament used: 22.4175m
;Layer height: 0.32
;MINX:76.347
;MINY:40.347
;MINZ:0.32
;MAXX:158.653
;MAXY:211.181
;MAXZ:16.96
;Generated with Cura_SteamEngine 4.6.0
M140 S60
M105
M190 S60
M104 S210
M105
M109 S210
M82 ;absolute extrusion mode
; Ender 3 Custom Start G-code
G92 E0 ; Reset Extruder
G28 ; Home all axes
G1 Z2.0 F3000 ; Move Z Axis up little to prevent scratching of Heat Bed
G1 X0.1 Y20 Z0.3 F5000.0 ; Move to start position
G1 X0.1 Y200.0 Z0.3 F1500.0 E15 ; Draw the first line
G1 X0.4 Y200.0 Z0.3 F5000.0 ; Move to side a little
G1 X0.4 Y20 Z0.3 F1500.0 E30 ; Draw the second line
G92 E0 ; Reset Extruder
G1 Z2.0 F3000 ; Move Z Axis up little to prevent scratching of Heat Bed
G1 X5 Y20 Z0.3 F5000.0 ; Move over to prevent blob squish
G92 E0
G92 E0
G1 F2700 E-5
;LAYER_COUNT:53
;LAYER:0
M107
;MESH:level2.stl
G0 F6000 X108.8 Y90.2 Z0.32
;TYPE:WALL-INNER
G1 F2700 E0
G1 F1200 X126.2 Y90.2 E1.85192
G1 X126.2 Y72.8 E3.70385
G1 X108.8 Y72.8 E5.55577
G1 X108.8 Y90.2 E7.4077
G0 F6000 X109.1 Y89.4
G0 X109.6 Y89.4
;TYPE:WALL-OUTER
G1 F1200 X125.4 Y89.4 E9.08933
G1 X125.4 Y73.6 E10.77096
G1 X109.6 Y73.6 E12.45259
G1 X109.6 Y89.4 E14.13423
G1 F2700 E9.13423
G0 F6000 X109.1 Y89.4
G0 X109.172 Y89.828
G0 X113.262 Y90.57
G0 X113.262 Y88.335
G0 X126.596 Y106.665
G0 X126.596 Y104.39
G0 X127.337 Y105.171
G0 X141.828 Y105.172
G0 X142.2 Y120.8
;TYPE:WALL-INNER
G1 F2700 E14.13423
G1 F1200 X142.2 Y104.8 E15.83715
G1 X92.8 Y104.8 E21.09491
G1 X92.8 Y120.8 E22.79783
G1 X78.2 Y120.8 E24.35174
G1 X78.2 Y90.2 E27.60857
G1 X94.2 Y90.2 E29.31149
G1 X94.2 Y72.8 E31.16342
G1 X78.2 Y72.8 E32.86634
G1 X78.2 Y42.2 E36.12317
G1 X92.8 Y42.2 E37.67708
G1 X92.8 Y58.2 E39.38
G1 X142.2 Y58.2 E44.63776
G1 X142.2 Y42.2 E46.34068
G1 X156.8 Y42.2 E47.89459
G1 X156.8 Y72.8 E51.15143
G1 X140.8 Y72.8 E52.85435
G1 X140.8 Y90.2 E54.70627
G1 X156.8 Y90.2 E56.40919
G1 X156.8 Y120.8 E59.66602
G1 X142.2 Y120.8 E61.21993
G0 F6000 X141.87 Y121.13
G0 X141.4 Y121.6
;TYPE:WALL-OUTER
G1 F1200 X141.4 Y105.6 E62.92285
G1 X93.6 Y105.6 E68.01032
G1 X93.6 Y121.6 E69.71324
G1 X77.4 Y121.6 E71.43745
G1 X77.4 Y89.4 E74.86457
G1 X93.4 Y89.4 E76.56749
G1 X93.4 Y73.6 E78.24912
G1 X77.4 Y73.6 E79.95204
G1 X77.4 Y41.4 E83.37917
G1 X93.6 Y41.4 E85.10337
G1 X93.6 Y57.4 E86.80629
G1 X141.4 Y57.4 E91.89376
G1 X141.4 Y41.4 E93.59668
G1 X157.6 Y41.4 E95.32089
G1 X157.6 Y73.6 E98.74801
G1 X141.6 Y73.6 E100.45093
G1 X141.6 Y89.4 E102.13256
G1 X157.6 Y89.4 E103.83548
G1 X157.6 Y121.6 E107.26261
G1 X141.4 Y121.6 E108.98681
G0 F6000 X141.87 Y121.13
G0 X142.51 Y120.01
G0 X142.99 Y120.01
;TYPE:SKIN
G1 F1200 X142.99 Y104.01 E110.68973
G1 X92.01 Y104.01 E116.11565
G1 X92.01 Y120.01 E117.81857
G1 X78.99 Y120.01 E119.20432
G1 X78.99 Y90.99 E122.29299
G1 X94.99 Y90.99 E123.99591
G1 X94.99 Y72.01 E126.016
G1 X78.99 Y72.01 E127.71892
G1 X78.99 Y42.99 E130.80759
G1 X92.01 Y42.99 E132.19334
G1 X92.01 Y58.99 E133.89626
G1 X142.99 Y58.99 E139.32218
G1 X142.99 Y42.99 E141.0251
G1 X156.01 Y42.99 E142.41085
G1 X156.01 Y72.01 E145.49952
G1 X140.01 Y72.01 E147.20244
G1 X140.01 Y90.99 E149.22253
G1 X156.01 Y90.99 E150.92545
G1 X156.01 Y120.01 E154.01412
G1 X142.99 Y120.01 E155.39987
G1 F2700 E150.39987
G0 F6000 X142.51 Y120.01
G0 X141.828 Y105.172
G0 X126.51 Y104.39
G0 X126.51 Y106.665
G0 X124.347 Y88.347
G0 X126.51 Y90.59
G0 X126.99 Y90.99
G1 F2700 E155.39987
G1 F1200 X126.99 Y72.01 E157.41995
G1 X108.01 Y72.01 E159.44004
G1 X108.01 Y90.99 E161.46013
G1 X126.99 Y90.99 E163.48022
G1 F2700 E158.48022
G0 F6000 X126.51 Y90.54
G0 X126.57 Y75.727
G0 X124.335 Y75.727
G0 X126.596 Y56.335
G0 X126.596 Y58.61
G0 X142.582 Y58.582
G0 X142.646 Y50.595
G0 X156.49 Y43.683
G0 X155.689 Y43.683
G1 F2700 E163.48022
G1 F1200 X155.316 Y43.31 E163.53636
G0 F6000 X155.316 Y42.51
G0 X154.184 Y42.51
G0 X154.184 Y43.31
G1 F1200 X155.689 Y44.815 E163.76289
G0 F6000 X156.49 Y44.815
G0 X156.49 Y45.946
G0 X155.689 Y45.946
G1 F1200 X153.053 Y43.31 E164.15965
G0 F6000 X153.053 Y42.51
G0 X151.921 Y42.51
G0 X151.921 Y43.31
G1 F1200 X155.689 Y47.077 E164.72673
G0 F6000 X156.49 Y47.077
G0 X156.49 Y48.209
G0 X155.689 Y48.209
G1 F1200 X150.79 Y43.31 E165.46412
G0 F6000 X150.79 Y42.51
G0 X149.659 Y42.51
G0 X149.659 Y43.31
G1 F1200 X155.689 Y49.34 E166.37175
G0 F6000 X156.49 Y49.34
G0 X156.49 Y50.471
G0 X155.689 Y50.471
G1 F1200 X148.527 Y43.31 E167.44968
G0 F6000 X148.527 Y42.51
G0 X147.396 Y42.51
G0 X147.396 Y43.31
G1 F1200 X155.689 Y51.603 E168.69793
G0 F6000 X156.49 Y51.603
G0 X156.49 Y52.734
G0 X155.689 Y52.734
G1 F1200 X146.265 Y43.31 E170.11641
G0 F6000 X146.265 Y42.51
G0 X145.133 Y42.51
G0 X145.133 Y43.31
G1 F1200 X155.689 Y53.865 E171.70521
G0 F6000 X156.49 Y53.865
G0 X156.49 Y54.997
G0 X155.689 Y54.997
G1 F1200 X144.002 Y43.31 E173.46431
G0 F6000 X143.308 Y43.747
G1 F1200 X155.689 Y56.128 E175.32788
G0 F6000 X156.49 Y56.128
G0 X156.49 Y57.26
G0 X155.689 Y57.26
G1 F1200 X143.308 Y44.879 E177.19144
G0 F6000 X142.51 Y44.879
G0 X142.51 Y46.01
G0 X143.308 Y46.01
G1 F1200 X155.689 Y58.391 E179.05501
G0 F6000 X156.49 Y58.391
G0 X156.49 Y59.522
G0 X155.689 Y59.522
G1 F1200 X143.308 Y47.142 E180.9185
G0 F6000 X142.51 Y47.142
G0 X142.51 Y48.273
G0 X143.308 Y48.273
G1 F1200 X155.689 Y60.654 E182.78207
G0 F6000 X156.49 Y60.654
G0 X156.49 Y61.785
G0 X155.689 Y61.785
G1 F1200 X143.308 Y49.404 E184.64563
G0 F6000 X142.51 Y49.404
G0 X142.51 Y50.536
G0 X143.308 Y50.536
G1 F1200 X155.689 Y62.916 E186.50912
G0 F6000 X156.49 Y62.916
G0 X156.49 Y64.048
G0 X155.689 Y64.048
G1 F1200 X143.308 Y51.667 E188.37269
G0 F6000 X142.51 Y51.667
G0 X142.51 Y52.798
G0 X143.308 Y52.798
G1 F1200 X155.689 Y65.179 E190.23625
G0 F6000 X156.49 Y65.179
G0 X156.49 Y66.311
G0 X155.689 Y66.311
G1 F1200 X143.308 Y53.93 E192.09982
G0 F6000 X142.51 Y53.93
G0 X142.51 Y55.061
G0 X143.308 Y55.061
G1 F1200 X155.689 Y67.442 E193.96339
G0 F6000 X156.49 Y67.442
G0 X156.49 Y68.573
G0 X155.689 Y68.573
G1 F1200 X143.308 Y56.193 E195.82688
G0 F6000 X142.51 Y56.193
G0 X142.51 Y57.324
G0 X143.308 Y57.324
G1 F1200 X155.689 Y69.705 E197.69044
G0 F6000 X156.49 Y69.705
G0 X156.49 Y70.836
G0 X155.689 Y70.836
G1 F1200 X143.308 Y58.455 E199.55401
G0 F6000 X143.031 Y59.309
G1 F1200 X155.411 Y71.69 E201.4175
G0 F6000 X155.411 Y72.49
G0 X154.28 Y72.49
G0 X154.28 Y71.69
G1 F1200 X141.9 Y59.309 E203.28099
G0 F6000 X141.9 Y58.51
G0 X140.768 Y58.51
G0 X140.768 Y59.309
G1 F1200 X153.148 Y71.69 E205.14448
G0 F6000 X153.148 Y72.49
G0 X152.017 Y72.49
G0 X152.017 Y71.69
G1 F1200 X139.637 Y59.309 E207.00797
G0 F6000 X139.637 Y58.51
G0 X138.505 Y58.51
G0 X138.505 Y59.309
G1 F1200 X150.885 Y71.69 E208.87146
G0 F6000 X150.885 Y72.49
G0 X149.754 Y72.49
G0 X149.754 Y71.69
G1 F1200 X137.374 Y59.309 E210.73495
G0 F6000 X137.374 Y58.51
G0 X136.243 Y58.51
G0 X136.243 Y59.309
G1 F1200 X148.623 Y71.69 E212.59844
G0 F6000 X148.623 Y72.49
G0 X147.491 Y72.49
G0 X147.491 Y71.69
G1 F1200 X135.111 Y59.309 E214.46193
G0 F6000 X135.111 Y58.51
G0 X133.98 Y58.51
G0 X133.98 Y59.309
G1 F1200 X146.36 Y71.69 E216.32542
G0 F6000 X146.36 Y72.49
G0 X145.229 Y72.49
G0 X145.229 Y71.69
G1 F1200 X132.849 Y59.309 E218.18891
G0 F6000 X132.849 Y58.51
G0 X131.717 Y58.51
G0 X131.717 Y59.309
G1 F1200 X144.097 Y71.69 E220.0524
G0 F6000 X144.097 Y72.49
G0 X142.966 Y72.49
G0 X142.966 Y71.69
G1 F1200 X130.586 Y59.309 E221.91589
G0 F6000 X130.586 Y58.51
G0 X129.454 Y58.51
G0 X129.454 Y59.309
G1 F1200 X141.835 Y71.69 E223.77946
G0 F6000 X141.835 Y72.49
G0 X140.703 Y72.49
G0 X140.703 Y71.69
G1 F1200 X128.323 Y59.309 E225.64295
G0 F6000 X128.323 Y58.51
G0 X127.192 Y58.51
G0 X127.192 Y59.309
G1 F1200 X139.689 Y71.807 E227.52405
G0 F6000 X140.46 Y72.46
G0 X140.49 Y72.938
G0 X139.689 Y72.938
G1 F1200 X126.06 Y59.309 E229.57546
G0 F6000 X126.06 Y58.51
G0 X124.929 Y58.51
G0 X124.929 Y59.309
G1 F1200 X139.689 Y74.07 E231.79719
G0 F6000 X140.49 Y74.07
G0 X140.49 Y75.201
G0 X139.689 Y75.201
G1 F1200 X123.798 Y59.309 E234.18915
G0 F6000 X123.798 Y58.51
G0 X122.666 Y58.51
G0 X122.666 Y59.309
G1 F1200 X139.689 Y76.332 E236.75142
G0 F6000 X140.49 Y76.332
G0 X140.49 Y77.464
G0 X139.689 Y77.464
G1 F1200 X121.535 Y59.309 E239.484
G0 F6000 X121.535 Y58.51
G0 X120.404 Y58.51
G0 X120.404 Y59.309
G1 F1200 X139.689 Y78.595 E242.38682
G0 F6000 X140.49 Y78.595
G0 X140.49 Y79.726
G0 X139.689 Y79.726
G1 F1200 X119.272 Y59.309 E245.45995
G0 F6000 X119.272 Y58.51
G0 X118.141 Y58.51
G0 X118.141 Y59.309
G1 F1200 X139.689 Y80.858 E248.70339
G0 F6000 X140.49 Y80.858
G0 X140.49 Y81.989
G0 X139.689 Y81.989
G1 F1200 X117.009 Y59.309 E252.11714
G0 F6000 X117.009 Y58.51
G0 X115.878 Y58.51
G0 X115.878 Y59.309
G1 F1200 X139.689 Y83.121 E255.70121
G0 F6000 X140.49 Y83.121
G0 X140.49 Y84.252
G0 X139.689 Y84.252
G1 F1200 X127.308 Y71.871 E257.56477
G0 F6000 X127.127 Y71.69
G1 F1200 X114.747 Y59.309 E259.42826
G0 F6000 X114.747 Y58.51
G0 X113.615 Y58.51
G0 X113.615 Y59.309
G1 F1200 X125.995 Y71.69 E261.29175
G0 F6000 X125.995 Y72.49
G0 X124.864 Y72.49
G0 X124.864 Y71.69
G1 F1200 X112.484 Y59.309 E263.15524
G0 F6000 X112.484 Y58.51
G0 X111.353 Y58.51
G0 X111.353 Y59.309
G1 F1200 X123.733 Y71.69 E265.01873
G0 F6000 X123.733 Y72.49
G0 X122.601 Y72.49
G0 X122.601 Y71.69
G1 F1200 X110.221 Y59.309 E266.88222
G0 F6000 X110.221 Y58.51
G0 X109.09 Y58.51
G0 X109.09 Y59.309
G1 F1200 X121.47 Y71.69 E268.74571
G0 F6000 X121.47 Y72.49
G0 X120.338 Y72.49
G0 X120.338 Y71.69
G1 F1200 X107.958 Y59.309 E270.6092
G0 F6000 X107.958 Y58.51
G0 X106.827 Y58.51
G0 X106.827 Y59.309
G1 F1200 X119.207 Y71.69 E272.47269
G0 F6000 X119.207 Y72.49
G0 X118.076 Y72.49
G0 X118.076 Y71.69
G1 F1200 X105.696 Y59.309 E274.33618
G0 F6000 X105.696 Y58.51
G0 X104.564 Y58.51
G0 X104.564 Y59.309
G1 F1200 X116.944 Y71.69 E276.19968
G0 F6000 X116.944 Y72.49
G0 X115.813 Y72.49
G0 X115.813 Y71.69
G1 F1200 X103.433 Y59.309 E278.06317
G0 F6000 X103.433 Y58.51
G0 X102.302 Y58.51
G0 X102.302 Y59.309
G1 F1200 X114.682 Y71.69 E279.92666
G0 F6000 X114.682 Y72.49
G0 X113.55 Y72.49
G0 X113.55 Y71.69
G1 F1200 X101.17 Y59.309 E281.79015
G0 F6000 X101.17 Y58.51
G0 X100.039 Y58.51
G0 X100.039 Y59.309
G1 F1200 X112.419 Y71.69 E283.65364
G0 F6000 X112.419 Y72.49
G0 X111.288 Y72.49
G0 X111.288 Y71.69
G1 F1200 X98.907 Y59.309 E285.5172
G0 F6000 X98.907 Y58.51
G0 X97.776 Y58.51
G0 X97.776 Y59.309
G1 F1200 X110.156 Y71.69 E287.38069
G0 F6000 X110.156 Y72.49
G0 X109.025 Y72.49
G0 X109.025 Y71.69
G1 F1200 X96.645 Y59.309 E289.24418
G0 F6000 X96.645 Y58.51
G0 X95.513 Y58.51
G0 X95.513 Y59.309
G1 F1200 X107.893 Y71.69 E291.10767
G0 F6000 X107.689 Y72.617
G1 F1200 X94.382 Y59.309 E293.11069
G0 F6000 X94.382 Y58.51
G0 X93.251 Y58.51
G0 X93.251 Y59.309
G1 F1200 X107.689 Y73.748 E295.28395
G0 F6000 X108.49 Y73.748
G0 X108.49 Y74.879
G0 X107.689 Y74.879
G1 F1200 X92.119 Y59.309 E297.62752
G0 F6000 X91.689 Y58.88
G1 F1200 X79.309 Y46.499 E299.49101
G0 F6000 X78.51 Y46.499
G0 X78.51 Y47.63
G0 X79.309 Y47.63
G1 F1200 X107.689 Y76.011 E303.76279
G0 F6000 X108.49 Y76.011
G0 X108.49 Y77.142
G0 X107.689 Y77.142
G1 F1200 X79.309 Y48.762 E308.0345
G0 F6000 X78.51 Y48.762
G0 X78.51 Y49.893
G0 X79.309 Y49.893
G1 F1200 X107.689 Y78.273 E312.3062
G0 F6000 X108.49 Y78.273
G0 X108.49 Y79.405
G0 X107.689 Y79.405
G1 F1200 X79.309 Y51.024 E316.57799
G0 F6000 X78.51 Y51.024
G0 X78.51 Y52.156
G0 X79.309 Y52.156
G1 F1200 X107.689 Y80.536 E320.84969
G0 F6000 X108.49 Y80.536
G0 X108.49 Y81.668
G0 X107.689 Y81.668
G1 F1200 X79.309 Y53.287 E325.12147
G0 F6000 X78.51 Y53.287
G0 X78.51 Y54.418
G0 X79.309 Y54.418
G1 F1200 X107.689 Y82.799 E329.39325
G0 F6000 X108.49 Y82.799
G0 X108.49 Y83.93
G0 X107.689 Y83.93
G1 F1200 X79.309 Y55.55 E333.66496
G0 F6000 X78.51 Y55.55
G0 X78.51 Y56.681
G0 X79.309 Y56.681
G1 F1200 X94.317 Y71.69 E335.92401
G0 F6000 X94.317 Y72.49
G0 X93.186 Y72.49
G0 X93.186 Y71.69
G1 F1200 X79.309 Y57.813 E338.01275
G0 F6000 X78.51 Y57.813
G0 X78.51 Y58.944
G0 X79.309 Y58.944
G1 F1200 X92.054 Y71.69 E339.93118
G0 F6000 X92.054 Y72.49
G0 X90.923 Y72.49
G0 X90.923 Y71.69
G1 F1200 X79.309 Y60.075 E341.67938
G0 F6000 X78.51 Y60.075
G0 X78.51 Y61.207
G0 X79.309 Y61.207
G1 F1200 X89.791 Y71.69 E343.25718
G0 F6000 X89.791 Y72.49
G0 X88.66 Y72.49
G0 X88.66 Y71.69
G1 F1200 X79.309 Y62.338 E344.66475
G0 F6000 X78.51 Y62.338
G0 X78.51 Y63.469
G0 X79.309 Y63.469
G1 F1200 X87.529 Y71.69 E345.90209
G0 F6000 X87.529 Y72.49
G0 X86.397 Y72.49
G0 X86.397 Y71.69
G1 F1200 X79.309 Y64.601 E346.96904
G0 F6000 X78.51 Y64.601
G0 X78.51 Y65.732
G0 X79.309 Y65.732
G1 F1200 X85.266 Y71.69 E347.86575
G0 F6000 X85.266 Y72.49
G0 X84.135 Y72.49
G0 X84.135 Y71.69
G1 F1200 X79.309 Y66.864 E348.59215
G0 F6000 X78.51 Y66.864
G0 X78.51 Y67.995
G0 X79.309 Y67.995
G1 F1200 X83.003 Y71.69 E349.14824
G0 F6000 X83.003 Y72.49
G0 X81.872 Y72.49
G0 X81.872 Y71.69
G1 F1200 X79.309 Y69.126 E349.53409
G0 F6000 X78.51 Y69.126
G0 X78.51 Y70.258
G0 X79.309 Y70.258
G1 F1200 X80.74 Y71.69 E349.74956
G0 F6000 X80.74 Y72.49
G0 X79.609 Y72.49
G0 X79.609 Y71.69
G1 F1200 X79.309 Y71.389 E349.79479
G0 F6000 X78.51 Y71.389
G0 X78.582 Y72.418
G0 X94.51 Y72.681
G0 X95.308 Y72.681
G1 F1200 X107.689 Y85.062 E351.65836
G0 F6000 X108.49 Y85.062
G0 X108.49 Y86.193
G0 X107.689 Y86.193
G1 F1200 X95.308 Y73.812 E353.52192
G0 F6000 X94.51 Y73.812
G0 X94.51 Y74.944
G0 X95.308 Y74.944
G1 F1200 X107.689 Y87.324 E355.38541
G0 F6000 X108.49 Y87.324
G0 X108.49 Y88.456
G0 X107.689 Y88.456
G1 F1200 X95.308 Y76.075 E357.24898
G0 F6000 X94.51 Y76.075
G0 X94.51 Y77.206
G0 X95.308 Y77.206
G1 F1200 X107.689 Y89.587 E359.11254
G0 F6000 X108.49 Y89.587
G0 X108.46 Y90.54
G0 X107.689 Y90.718
G1 F1200 X95.308 Y78.338 E360.97603
G0 F6000 X94.51 Y78.338
G0 X94.51 Y79.469
G0 X95.308 Y79.469
G1 F1200 X119.528 Y103.689 E364.62159
G0 F6000 X119.528 Y104.49
G0 X118.397 Y104.49
G0 X118.397 Y103.689
G1 F1200 X95.308 Y80.6 E368.0969
G0 F6000 X94.51 Y80.6
G0 X94.51 Y81.732
G0 X95.308 Y81.732
G1 F1200 X117.265 Y103.689 E371.40183
G0 F6000 X117.265 Y104.49
G0 X116.134 Y104.49
G0 X116.134 Y103.689
G1 F1200 X95.308 Y82.863 E374.53652
G0 F6000 X94.51 Y82.863
G0 X94.51 Y83.995
G0 X95.308 Y83.995
G1 F1200 X115.003 Y103.689 E377.5009
G0 F6000 X115.003 Y104.49
G0 X113.871 Y104.49
G0 X113.871 Y103.689
G1 F1200 X95.308 Y85.126 E380.29497
G0 F6000 X94.51 Y85.126
G0 X94.51 Y86.257
G0 X95.308 Y86.257
G1 F1200 X112.74 Y103.689 E382.9188
G0 F6000 X112.74 Y104.49
G0 X111.609 Y104.49
G0 X111.609 Y103.689
G1 F1200 X95.308 Y87.389 E385.37232
G0 F6000 X94.51 Y87.389
G0 X94.51 Y88.52
G0 X95.308 Y88.52
G1 F1200 X110.477 Y103.689 E387.65553
G0 F6000 X110.477 Y104.49
G0 X109.346 Y104.49
G0 X109.346 Y103.689
G1 F1200 X95.308 Y89.651 E389.76851
G0 F6000 X94.51 Y89.651
G0 X94.54 Y90.54
G0 X95.308 Y90.783
G1 F1200 X108.214 Y103.689 E391.7111
G0 F6000 X108.214 Y104.49
G0 X107.083 Y104.49
G0 X107.083 Y103.689
G1 F1200 X94.704 Y91.31 E393.57436
G0 F6000 X94.54 Y90.54
G0 X93.572 Y90.51
G0 X93.572 Y91.31
G1 F1200 X105.952 Y103.689 E395.4377
G0 F6000 X105.952 Y104.49
G0 X104.82 Y104.49
G0 X104.82 Y103.689
G1 F1200 X92.441 Y91.31 E397.30097
G0 F6000 X92.441 Y90.51
G0 X91.31 Y90.51
G0 X91.31 Y91.31
G1 F1200 X103.689 Y103.689 E399.16423
G0 F6000 X103.689 Y104.49
G0 X102.558 Y104.49
G0 X102.558 Y103.689
G1 F1200 X90.178 Y91.31 E401.02757
G0 F6000 X90.178 Y90.51
G0 X89.047 Y90.51
G0 X89.047 Y91.31
G1 F1200 X101.426 Y103.689 E402.89083
G0 F6000 X101.426 Y104.49
G0 X100.295 Y104.49
G0 X100.295 Y103.689
G1 F1200 X87.916 Y91.31 E404.7541
G0 F6000 X87.916 Y90.51
G0 X86.784 Y90.51
G0 X86.784 Y91.31
G1 F1200 X99.163 Y103.689 E406.61736
G0 F6000 X99.163 Y104.49
G0 X98.032 Y104.49
G0 X98.032 Y103.689
G1 F1200 X85.653 Y91.31 E408.48063
G0 F6000 X85.653 Y90.51
G0 X84.521 Y90.51
G0 X84.521 Y91.31
G1 F1200 X96.901 Y103.689 E410.34397
G0 F6000 X96.901 Y104.49
G0 X95.769 Y104.49
G0 X95.769 Y103.689
G1 F1200 X83.39 Y91.31 E412.20723
G0 F6000 X83.39 Y90.51
G0 X82.259 Y90.51
G0 X82.259 Y91.31
G1 F1200 X94.638 Y103.689 E414.0705
G0 F6000 X94.638 Y104.49
G0 X93.507 Y104.49
G0 X93.507 Y103.689
G1 F1200 X81.127 Y91.31 E415.93384
G0 F6000 X81.127 Y90.51
G0 X79.996 Y90.51
G0 X79.996 Y91.31
G1 F1200 X92.375 Y103.689 E417.7971
G0 F6000 X91.69 Y104.135
G1 F1200 X79.309 Y91.754 E419.66067
