;FLAVOR:Marlin
;TIME:23891
;Filament used: 31.6548m
;Layer height: 0.32
;MINX:20.339
;MINY:36.339
;MINZ:0.32
;MAXX:214.665
;MAXY:197.6
;MAXZ:16.96
;Generated with Cura_SteamEngine 4.6.0
M140 S60
M105
M190 S60
M104 S205
M105
M109 S205
M82 ;absolute extrusion mode
; Ender 3 Custom Start G-code
G92 E0 ; Reset Extruder
G28 ; Home all axes
G1 Z2.0 F3000 ; Move Z Axis up little to prevent scratching of Heat Bed
G1 X0.1 Y20 Z0.3 F5000.0 ; Move to start position
G1 X0.1 Y200.0 Z0.3 F1500.0 E15 ; Draw the first line
G1 X0.4 Y200.0 Z0.3 F5000.0 ; Move to side a little
G1 X0.4 Y20 Z0.3 F1500.0 E30 ; Draw the second line
G92 E0 ; Reset Extruder
G1 Z2.0 F3000 ; Move Z Axis up little to prevent scratching of Heat Bed
G1 X5 Y20 Z0.3 F5000.0 ; Move over to prevent blob squish
G92 E0
G92 E0
G1 F2700 E-5
;LAYER_COUNT:53
;LAYER:0
M107
;MESH:level0.stl
G0 F6000 X70.2 Y102.2 Z0.32
;TYPE:WALL-INNER
G1 F2700 E0
G1 F1200 X70.2 Y84.8 E1.48154
G1 X52.8 Y84.8 E2.96308
G1 X52.8 Y102.2 E4.44462
G1 X70.2 Y102.2 E5.92616
G0 F6000 X69.9 Y101.4
G0 X69.4 Y101.4
;TYPE:WALL-OUTER
G1 F1200 X69.4 Y85.6 E7.27146
G1 X53.6 Y85.6 E8.61677
G1 X53.6 Y101.4 E9.96208
G1 X69.4 Y101.4 E11.30738
G1 F2700 E6.30738
G0 F6000 X69.9 Y101.4
G0 X69.828 Y101.828
G0 X67.273 Y102.57
G0 X67.273 Y100.335
G0 X118.584 Y101.725
G0 X118.653 Y148.347
G0 X132.347 Y148.347
G0 X132.415 Y102.1
G0 X150.665 Y102.596
G0 X148.41 Y102.596
G0 X148.8 Y150.2
;TYPE:WALL-INNER
G1 F2700 E11.30738
G1 F1200 X166.2 Y150.2 E12.78892
G1 X166.2 Y84.8 E18.35747
G1 X148.8 Y84.8 E19.83901
G1 X148.8 Y150.2 E25.40755
G0 F6000 X149.1 Y149.4
G0 X149.6 Y149.4
;TYPE:WALL-OUTER
G1 F1200 X165.4 Y149.4 E26.75286
G1 X165.4 Y85.6 E32.18517
G1 X149.6 Y85.6 E33.53047
G1 X149.6 Y149.4 E38.96278
G1 F2700 E33.96278
G0 F6000 X149.1 Y149.4
G0 X148.41 Y150.2
G0 X150.653 Y148.347
G0 X132.347 Y148.347
G0 X134.59 Y150.2
G0 X116.8 Y150.2
;TYPE:WALL-INNER
G1 F2700 E38.96278
G1 F1200 X134.2 Y150.2 E40.44432
G1 X134.2 Y84.8 E46.01287
G1 X84.8 Y84.8 E50.21908
G1 X84.8 Y102.2 E51.70062
G1 X116.8 Y102.2 E54.42529
G1 X116.8 Y150.2 E58.51229
G0 F6000 X117.1 Y149.4
G0 X117.6 Y149.4
;TYPE:WALL-OUTER
G1 F1200 X133.4 Y149.4 E59.8576
G1 X133.4 Y85.6 E65.28991
G1 X85.6 Y85.6 E69.35989
G1 X85.6 Y101.4 E70.70519
G1 X117.6 Y101.4 E73.42986
G1 X117.6 Y149.4 E77.51687
G1 F2700 E72.51687
G0 F6000 X117.1 Y149.4
G0 X117.172 Y149.828
G0 X134.2 Y150.59
G0 X132.347 Y148.347
G0 X132.347 Y166.653
G0 X134.2 Y164.39
G0 X134.2 Y196.8
;TYPE:WALL-INNER
G1 F2700 E77.51687
G1 F1200 X134.2 Y164.8 E80.24154
G1 X102.2 Y164.8 E82.96621
G1 X102.2 Y148.8 E84.32854
G1 X54.2 Y148.8 E88.41555
G1 X54.2 Y132.8 E89.77789
G1 X22.2 Y132.8 E92.50256
G1 X22.2 Y118.2 E93.74569
G1 X38.2 Y118.2 E95.10802
G1 X38.2 Y68.8 E99.31423
G1 X22.2 Y68.8 E100.67657
G1 X22.2 Y54.2 E101.9197
G1 X52.8 Y54.2 E104.52516
G1 X52.8 Y70.2 E105.8875
G1 X70.2 Y70.2 E107.36904
G1 X70.2 Y54.2 E108.73137
G1 X134.2 Y54.2 E114.18071
G1 X134.2 Y39.2 E115.4579
G1 X135.2 Y39.2 E115.54305
G1 X135.2 Y38.2 E115.62819
G1 X148.8 Y38.2 E116.78618
G1 X148.8 Y54.2 E118.14851
G1 X166.2 Y54.2 E119.63005
G1 X166.2 Y38.2 E120.99239
G1 X180.8 Y38.2 E122.23552
G1 X180.8 Y54.2 E123.59785
G1 X212.8 Y54.2 E126.32253
G1 X212.8 Y148.8 E134.37733
G1 X180.8 Y148.8 E137.102
G1 X180.8 Y164.8 E138.46434
G1 X148.8 Y164.8 E141.18901
G1 X148.8 Y196.8 E143.91368
G1 X134.2 Y196.8 E145.15681
G0 F6000 X133.87 Y197.13
G0 X133.4 Y197.6
;TYPE:WALL-OUTER
G1 F1200 X133.4 Y165.6 E147.88148
G1 X101.4 Y165.6 E150.60615
G1 X101.4 Y149.6 E151.96848
G1 X53.4 Y149.6 E156.05549
G1 X53.4 Y133.6 E157.41782
G1 X21.4 Y133.6 E160.14249
G1 X21.4 Y117.4 E161.52186
G1 X37.4 Y117.4 E162.88419
G1 X37.4 Y69.6 E166.95417
G1 X21.4 Y69.6 E168.31651
G1 X21.4 Y53.4 E169.69587
G1 X53.6 Y53.4 E172.43757
G1 X53.6 Y69.4 E173.7999
G1 X69.4 Y69.4 E175.14521
G1 X69.4 Y53.4 E176.50755
G1 X133.4 Y53.4 E181.95689
G1 X133.4 Y38.4 E183.23408
G1 X134.4 Y38.4 E183.31922
G1 X134.4 Y37.4 E183.40437
G1 X149.6 Y37.4 E184.69859
G1 X149.6 Y53.4 E186.06092
G1 X165.4 Y53.4 E187.40623
G1 X165.4 Y37.4 E188.76856
G1 X181.6 Y37.4 E190.14793
G1 X181.6 Y53.4 E191.51026
G1 X213.6 Y53.4 E194.23493
G1 X213.6 Y149.6 E202.42597
G1 X181.6 Y149.6 E205.15064
G1 X181.6 Y165.6 E206.51298
G1 X149.6 Y165.6 E209.23765
G1 X149.6 Y197.6 E211.96232
G1 X133.4 Y197.6 E213.34168
G0 F6000 X133.87 Y197.13
G0 X134.51 Y196.01
G0 X134.99 Y196.01
;TYPE:SKIN
G1 F1200 X134.99 Y164.01 E216.06635
G1 X102.99 Y164.01 E218.79102
G1 X102.99 Y148.01 E220.15336
G1 X54.99 Y148.01 E224.24036
G1 X54.99 Y132.01 E225.6027
G1 X22.99 Y132.01 E228.32737
G1 X22.99 Y118.99 E229.43597
G1 X38.99 Y118.99 E230.7983
G1 X38.99 Y68.01 E235.13904
G1 X22.99 Y68.01 E236.50138
G1 X22.99 Y54.99 E237.60998
G1 X52.01 Y54.99 E240.08091
G1 X52.01 Y70.99 E241.44325
G1 X70.99 Y70.99 E243.05932
G1 X70.99 Y54.99 E244.42165
G1 X134.99 Y54.99 E249.871
G1 X134.99 Y39.99 E251.14818
G1 X135.99 Y39.99 E251.23333
G1 X135.99 Y38.99 E251.31848
G1 X148.01 Y38.99 E252.34193
G1 X148.01 Y54.99 E253.70427
G1 X166.99 Y54.99 E255.32034
G1 X166.99 Y38.99 E256.68267
G1 X180.01 Y38.99 E257.79127
G1 X180.01 Y54.99 E259.15361
G1 X212.01 Y54.99 E261.87828
G1 X212.01 Y148.01 E269.79855
G1 X180.01 Y148.01 E272.52322
G1 X180.01 Y164.01 E273.88556
G1 X148.01 Y164.01 E276.61023
G1 X148.01 Y196.01 E279.3349
G1 X134.99 Y196.01 E280.4435
G1 F2700 E275.4435
G0 F6000 X134.51 Y196.01
G0 X134.51 Y164.39
G0 X132.347 Y166.653
G0 X132.347 Y148.347
G0 X134.51 Y150.59
G0 X134.99 Y150.99
G1 F2700 E280.4435
G1 F1200 X134.99 Y84.01 E286.14657
G1 X84.01 Y84.01 E290.48731
G1 X84.01 Y102.99 E292.10338
G1 X116.01 Y102.99 E294.82805
G1 X116.01 Y150.99 E298.91506
G1 X134.99 Y150.99 E300.53113
G1 F2700 E295.53113
G0 F6000 X134.51 Y150.54
G0 X134.59 Y150.54
G0 X132.347 Y148.347
G0 X150.653 Y148.347
G0 X148.41 Y150.54
G0 X148.49 Y150.54
G0 X148.01 Y150.99
G1 F2700 E300.53113
G1 F1200 X166.99 Y150.99 E302.1472
G1 X166.99 Y84.01 E307.85028
G1 X148.01 Y84.01 E309.46635
G1 X148.01 Y150.99 E315.16942
G1 F2700 E310.16942
G0 F6000 X148.49 Y150.54
G0 X148.41 Y102.54
G0 X150.665 Y102.54
G0 X132.415 Y102.053
G0 X132.347 Y148.347
G0 X118.653 Y148.347
G0 X118.584 Y101.685
G0 X68.347 Y100.347
G0 X70.59 Y102.54
G0 X70.51 Y102.54
G0 X70.99 Y102.99
G1 F2700 E315.16942
G1 F1200 X70.99 Y84.01 E316.78549
G1 X52.01 Y84.01 E318.40156
G1 X52.01 Y102.99 E320.01763
G1 X70.99 Y102.99 E321.6337
G1 F2700 E316.6337
G0 F6000 X70.51 Y102.54
G0 X57.262 Y102.57
G0 X57.262 Y100.335
G0 X36.335 Y102.596
G0 X38.61 Y102.596
G0 X38.582 Y118.582
G0 X30.877 Y118.645
G0 X24.208 Y132.49
G0 X24.208 Y131.688
G1 F2700 E321.6337
G1 F1200 X23.309 Y130.79 E321.74189
G0 F6000 X22.51 Y130.79
G0 X22.51 Y129.658
G0 X23.309 Y129.658
G1 F1200 X25.339 Y131.688 E321.98634
G0 F6000 X25.339 Y132.49
G0 X26.471 Y132.49
G0 X26.471 Y131.688
G1 F1200 X23.309 Y128.527 E322.36703
G0 F6000 X22.51 Y128.527
G0 X22.51 Y127.395
G0 X23.309 Y127.395
G1 F1200 X27.602 Y131.688 E322.88397
G0 F6000 X27.602 Y132.49
G0 X28.733 Y132.49
G0 X28.733 Y131.688
G1 F1200 X23.309 Y126.264 E323.53709
G0 F6000 X22.51 Y126.264
G0 X22.51 Y125.133
G0 X23.309 Y125.133
G1 F1200 X29.865 Y131.688 E324.32647
G0 F6000 X29.865 Y132.49
G0 X30.996 Y132.49
G0 X30.996 Y131.688
G1 F1200 X23.309 Y124.001 E325.2521
G0 F6000 X22.51 Y124.001
G0 X22.51 Y122.87
G0 X23.309 Y122.87
G1 F1200 X32.128 Y131.688 E326.31397
G0 F6000 X32.128 Y132.49
G0 X33.259 Y132.49
G0 X33.259 Y131.688
G1 F1200 X23.309 Y121.739 E327.51204
G0 F6000 X22.51 Y121.739
G0 X22.51 Y120.607
G0 X23.309 Y120.607
G1 F1200 X34.39 Y131.688 E328.84635
G0 F6000 X34.39 Y132.49
G0 X35.522 Y132.49
G0 X35.522 Y131.688
G1 F1200 X23.309 Y119.476 E330.31691
G0 F6000 X24.274 Y119.309
G1 F1200 X36.653 Y131.688 E331.80753
G0 F6000 X36.653 Y132.49
G0 X37.784 Y132.49
G0 X37.784 Y131.688
G1 F1200 X25.405 Y119.309 E333.29814
G0 F6000 X25.405 Y118.51
G0 X26.537 Y118.51
G0 X26.537 Y119.309
G1 F1200 X38.916 Y131.688 E334.78875
G0 F6000 X38.916 Y132.49
G0 X40.047 Y132.49
G0 X40.047 Y131.688
G1 F1200 X27.668 Y119.309 E336.27936
G0 F6000 X27.668 Y118.51
G0 X28.799 Y118.51
G0 X28.799 Y119.309
G1 F1200 X41.179 Y131.688 E337.77003
G0 F6000 X41.179 Y132.49
G0 X42.31 Y132.49
G0 X42.31 Y131.688
G1 F1200 X29.931 Y119.309 E339.26065
G0 F6000 X29.931 Y118.51
G0 X31.062 Y118.51
G0 X31.062 Y119.309
G1 F1200 X43.441 Y131.688 E340.75126
G0 F6000 X43.441 Y132.49
G0 X44.573 Y132.49
G0 X44.573 Y131.688
G1 F1200 X32.193 Y119.309 E342.24193
G0 F6000 X32.193 Y118.51
G0 X33.325 Y118.51
G0 X33.325 Y119.309
G1 F1200 X45.704 Y131.688 E343.73254
G0 F6000 X45.704 Y132.49
G0 X46.835 Y132.49
G0 X46.835 Y131.688
G1 F1200 X34.456 Y119.309 E345.22315
G0 F6000 X34.456 Y118.51
G0 X35.587 Y118.51
G0 X35.587 Y119.309
G1 F1200 X47.967 Y131.688 E346.71382
G0 F6000 X47.967 Y132.49
G0 X49.098 Y132.49
G0 X49.098 Y131.688
G1 F1200 X36.719 Y119.309 E348.20444
G0 F6000 X36.719 Y118.51
G0 X37.85 Y118.51
G0 X37.85 Y119.309
G1 F1200 X50.23 Y131.688 E349.69511
G0 F6000 X50.23 Y132.49
G0 X51.361 Y132.49
G0 X51.361 Y131.688
G1 F1200 X38.982 Y119.309 E351.18572
G0 F6000 X39.31 Y118.506
G1 F1200 X52.492 Y131.688 E352.77302
G0 F6000 X52.492 Y132.49
G0 X53.624 Y132.49
G0 X53.624 Y131.688
G1 F1200 X39.31 Y117.374 E354.49664
G0 F6000 X38.51 Y117.374
G0 X38.51 Y116.243
G0 X39.31 Y116.243
G1 F1200 X54.755 Y131.688 E356.35644
G0 F6000 X55.309 Y132.243
G1 F1200 X70.755 Y147.689 E358.21636
G0 F6000 X70.755 Y148.49
G0 X69.624 Y148.49
G0 X69.624 Y147.689
G1 F1200 X55.309 Y133.374 E359.9401
G0 F6000 X54.51 Y133.374
G0 X54.51 Y134.505
G0 X55.309 Y134.505
G1 F1200 X68.493 Y147.689 E361.52764
G0 F6000 X68.493 Y148.49
G0 X67.361 Y148.49
G0 X67.361 Y147.689
G1 F1200 X55.309 Y135.637 E362.97888
G0 F6000 X54.51 Y135.637
G0 X54.51 Y136.768
G0 X55.309 Y136.768
G1 F1200 X66.23 Y147.689 E364.29393
G0 F6000 X66.23 Y148.49
G0 X65.099 Y148.49
G0 X65.099 Y147.689
G1 F1200 X55.309 Y137.899 E365.47279
G0 F6000 X54.51 Y137.899
G0 X54.51 Y139.031
G0 X55.309 Y139.031
G1 F1200 X63.967 Y147.689 E366.51534
G0 F6000 X63.967 Y148.49
G0 X62.836 Y148.49
G0 X62.836 Y147.689
G1 F1200 X55.309 Y140.162 E367.4217
G0 F6000 X54.51 Y140.162
G0 X54.51 Y141.294
G0 X55.309 Y141.294
G1 F1200 X61.704 Y147.689 E368.19175
G0 F6000 X61.704 Y148.49
G0 X60.573 Y148.49
G0 X60.573 Y147.689
G1 F1200 X55.309 Y142.425 E368.82561
G0 F6000 X54.51 Y142.425
G0 X54.51 Y143.556
G0 X55.309 Y143.556
G1 F1200 X59.442 Y147.689 E369.32328
G0 F6000 X59.442 Y148.49
G0 X58.31 Y148.49
G0 X58.31 Y147.689
G1 F1200 X55.309 Y144.688 E369.68465
G0 F6000 X54.51 Y144.688
G0 X54.51 Y145.819
G0 X55.309 Y145.819
G1 F1200 X57.179 Y147.689 E369.90982
G0 F6000 X57.179 Y148.49
G0 X56.048 Y148.49
G0 X56.048 Y147.689
G1 F1200 X55.309 Y146.95 E369.99881
G0 F6000 X54.51 Y146.95
G0 X54.582 Y148.418
G0 X71.887 Y148.49
G0 X71.887 Y147.689
G1 F1200 X39.31 Y115.112 E373.92155
G0 F6000 X38.51 Y115.112
G0 X38.51 Y113.98
G0 X39.31 Y113.98
G1 F1200 X73.018 Y147.689 E377.98055
G0 F6000 X73.018 Y148.49
G0 X74.15 Y148.49
G0 X74.15 Y147.689
G1 F1200 X39.31 Y112.849 E382.17579
G0 F6000 X38.51 Y112.849
G0 X38.51 Y111.717
G0 X39.31 Y111.717
G1 F1200 X75.281 Y147.689 E386.50728
G0 F6000 X75.281 Y148.49
G0 X76.412 Y148.49
G0 X76.412 Y147.689
G1 F1200 X39.31 Y110.586 E390.97496
G0 F6000 X38.51 Y110.586
G0 X38.51 Y109.455
G0 X39.31 Y109.455
G1 F1200 X77.544 Y147.689 E395.57889
G0 F6000 X77.544 Y148.49
G0 X78.675 Y148.49
G0 X78.675 Y147.689
G1 F1200 X39.31 Y108.323 E400.31907
G0 F6000 X38.51 Y108.323
G0 X38.51 Y107.192
G0 X39.31 Y107.192
G1 F1200 X79.806 Y147.689 E405.19544
G0 F6000 X79.806 Y148.49
G0 X80.938 Y148.49
G0 X80.938 Y147.689
G1 F1200 X39.31 Y106.061 E410.20806
G0 F6000 X38.51 Y106.061
G0 X38.51 Y104.929
G0 X39.31 Y104.929
G1 F1200 X82.069 Y147.689 E415.35692
G0 F6000 X82.069 Y148.49
G0 X83.201 Y148.49
G0 X83.201 Y147.689
G1 F1200 X39.31 Y103.798 E420.64204
G0 F6000 X38.51 Y103.798
G0 X38.51 Y102.666
G0 X39.31 Y102.666
G1 F1200 X84.332 Y147.689 E426.0634
G0 F6000 X84.332 Y148.49
G0 X85.463 Y148.49
G0 X85.463 Y147.689
G1 F1200 X39.31 Y101.535 E431.62095
G0 F6000 X38.51 Y101.535
G0 X38.51 Y100.404
G0 X39.31 Y100.404
G1 F1200 X86.595 Y147.689 E437.31476
G0 F6000 X86.595 Y148.49
G0 X87.726 Y148.49
G0 X87.726 Y147.689
G1 F1200 X39.31 Y99.272 E443.14481
G0 F6000 X38.51 Y99.272
G0 X38.51 Y98.141
G0 X39.31 Y98.141
G1 F1200 X88.857 Y147.689 E449.11105
G0 F6000 X88.857 Y148.49
G0 X89.989 Y148.49
G0 X89.989 Y147.689
G1 F1200 X39.31 Y97.01 E455.21354
G0 F6000 X38.51 Y97.01
G0 X38.51 Y95.878
G0 X39.31 Y95.878
G1 F1200 X91.12 Y147.689 E461.45227
G0 F6000 X91.12 Y148.49
G0 X92.251 Y148.49
G0 X92.251 Y147.689
G1 F1200 X39.31 Y94.747 E467.8272
G0 F6000 X38.51 Y94.747
G0 X38.51 Y93.615
G0 X39.31 Y93.615
G1 F1200 X93.383 Y147.689 E474.33844
G0 F6000 X93.383 Y148.49
G0 X94.514 Y148.49
G0 X94.514 Y147.689
G1 F1200 X39.31 Y92.484 E480.98586
G0 F6000 X38.51 Y92.484
G0 X38.51 Y91.353
G0 X39.31 Y91.353
G1 F1200 X95.646 Y147.689 E487.76954
G0 F6000 X95.646 Y148.49
G0 X96.777 Y148.49
G0 X96.777 Y147.689
G1 F1200 X52.397 Y103.309 E493.11353
G0 F6000 X52.397 Y102.51
G0 X52.49 Y102.601
G0 X51.69 Y102.601
G1 F1200 X39.31 Y90.221 E494.60427
G0 F6000 X38.51 Y90.221
G0 X38.51 Y89.09
G0 X39.31 Y89.09
G1 F1200 X51.69 Y101.47 E496.095
G0 F6000 X52.49 Y101.47
G0 X52.49 Y100.339
G0 X51.69 Y100.339
G1 F1200 X39.31 Y87.959 E497.58573
G0 F6000 X38.51 Y87.959
G0 X38.51 Y86.827
G0 X39.31 Y86.827
G1 F1200 X51.69 Y99.207 E499.07646
G0 F6000 X52.49 Y99.207
G0 X52.49 Y98.076
G0 X51.69 Y98.076
G1 F1200 X39.31 Y85.696 E500.5672
G0 F6000 X38.51 Y85.696
G0 X38.51 Y84.565
G0 X39.31 Y84.565
G1 F1200 X51.69 Y96.945 E502.05793
G0 F6000 X52.49 Y96.945
G0 X52.49 Y95.813
G0 X51.69 Y95.813
G1 F1200 X39.31 Y83.433 E503.54866
G0 F6000 X38.51 Y83.433
G0 X38.51 Y82.302
G0 X39.31 Y82.302
G1 F1200 X51.69 Y94.682 E505.03939
G0 F6000 X52.49 Y94.682
G0 X52.49 Y93.55
G0 X51.69 Y93.55
G1 F1200 X39.31 Y81.17 E506.53012
G0 F6000 X38.51 Y81.17
G0 X38.51 Y80.039
G0 X39.31 Y80.039
G1 F1200 X51.69 Y92.419 E508.02086
G0 F6000 X52.49 Y92.419
G0 X52.49 Y91.288
G0 X51.69 Y91.288
G1 F1200 X39.31 Y78.908 E509.51159
G0 F6000 X38.51 Y78.908
G0 X38.51 Y77.776
G0 X39.31 Y77.776
G1 F1200 X51.69 Y90.156 E511.00232
G0 F6000 X52.49 Y90.156
G0 X52.49 Y89.025
G0 X51.69 Y89.025
G1 F1200 X39.31 Y76.645 E512.49305
G0 F6000 X38.51 Y76.645
G0 X38.51 Y75.514
G0 X39.31 Y75.514
G1 F1200 X51.69 Y87.894 E513.98378
G0 F6000 X52.49 Y87.894
G0 X52.49 Y86.762
G0 X51.69 Y86.762
G1 F1200 X39.31 Y74.382 E515.47452
G0 F6000 X38.51 Y74.382
G0 X38.51 Y73.251
G0 X39.31 Y73.251
G1 F1200 X51.69 Y85.631 E516.96525
G0 F6000 X52.49 Y85.631
G0 X52.49 Y84.499
G0 X51.69 Y84.499
G1 F1200 X39.31 Y72.119 E518.45598
G0 F6000 X38.51 Y72.119
G0 X38.51 Y70.988
G0 X39.31 Y70.988
G1 F1200 X52.01 Y83.688 E519.98525
G0 F6000 X52.46 Y84.46
G0 X53.141 Y84.49
G0 X53.141 Y83.688
G1 F1200 X39.31 Y69.857 E521.6507
G0 F6000 X38.51 Y69.857
G0 X38.51 Y68.725
G0 X39.31 Y68.725
G1 F1200 X54.273 Y83.688 E523.45246
G0 F6000 X54.273 Y84.49
G0 X55.404 Y84.49
G0 X55.404 Y83.688
G1 F1200 X27.024 Y55.309 E526.86977
G0 F6000 X27.024 Y54.51
G0 X25.893 Y54.51
G0 X25.893 Y55.309
G1 F1200 X38.273 Y67.689 E528.3605
G0 F6000 X38.273 Y68.49
G0 X37.142 Y68.49
G0 X37.142 Y67.689
G1 F1200 X24.762 Y55.309 E529.85123
G0 F6000 X24.762 Y54.51
G0 X23.63 Y54.51
G0 X23.63 Y55.309
G1 F1200 X36.01 Y67.689 E531.34196
G0 F6000 X36.01 Y68.49
G0 X34.879 Y68.49
G0 X34.879 Y67.689
G1 F1200 X23.309 Y56.119 E532.73516
G0 F6000 X22.51 Y56.119
G0 X22.51 Y57.25
G0 X23.309 Y57.25
G1 F1200 X33.748 Y67.689 E533.99217
G0 F6000 X33.748 Y68.49
G0 X32.616 Y68.49
G0 X32.616 Y67.689
G1 F1200 X23.309 Y58.382 E535.11287
G0 F6000 X22.51 Y58.382
G0 X22.51 Y59.513
G0 X23.309 Y59.513
G1 F1200 X31.485 Y67.689 E536.09738
G0 F6000 X31.485 Y68.49
G0 X30.353 Y68.49
G0 X30.353 Y67.689
G1 F1200 X23.309 Y60.645 E536.94558
G0 F6000 X22.51 Y60.645
G0 X22.51 Y61.776
G0 X23.309 Y61.776
G1 F1200 X29.222 Y67.689 E537.65759
G0 F6000 X29.222 Y68.49
G0 X28.091 Y68.49
G0 X28.091 Y67.689
G1 F1200 X23.309 Y62.907 E538.23341
G0 F6000 X22.51 Y62.907
G0 X22.51 Y64.039
G0 X23.309 Y64.039
G1 F1200 X26.959 Y67.689 E538.67292
G0 F6000 X26.959 Y68.49
G0 X25.828 Y68.49
G0 X25.828 Y67.689
G1 F1200 X23.309 Y65.17 E538.97625
