;FLAVOR:Marlin
;TIME:7468
;Filament used: 10.689m
;Layer height: 0.32
;MINX:86.472
;MINY:50.472
;MINZ:0.32
;MAXX:148.528
;MAXY:188.982
;MAXZ:12.48
;Generated with Cura_SteamEngine 4.6.0
M140 S60
M105
M190 S60
M104 S210
M105
M109 S210
M82 ;absolute extrusion mode
; Ender 3 Custom Start G-code
G92 E0 ; Reset Extruder
G28 ; Home all axes
G1 Z2.0 F3000 ; Move Z Axis up little to prevent scratching of Heat Bed
G1 X0.1 Y20 Z0.3 F5000.0 ; Move to start position
G1 X0.1 Y200.0 Z0.3 F1500.0 E15 ; Draw the first line
G1 X0.4 Y200.0 Z0.3 F5000.0 ; Move to side a little
G1 X0.4 Y20 Z0.3 F1500.0 E30 ; Draw the second line
G92 E0 ; Reset Extruder
G1 Z2.0 F3000 ; Move Z Axis up little to prevent scratching of Heat Bed
G1 X5 Y20 Z0.3 F5000.0 ; Move over to prevent blob squish
G92 E0
G92 E0
G1 F2700 E-5
;LAYER_COUNT:39
;LAYER:0
M107
;MESH:level2.stl
G0 F6000 X110.675 Y88.325 Z0.32
;TYPE:WALL-INNER
G1 F2700 E0
G1 F1200 X124.325 Y88.325 E1.4528
G1 X124.325 Y74.675 E2.90561
G1 X110.675 Y74.675 E4.35841
G1 X110.675 Y88.325 E5.81121
G0 F6000 X110.975 Y87.525
G0 X111.475 Y87.525
;TYPE:WALL-OUTER
G1 F1200 X123.525 Y87.525 E7.09372
G1 X123.525 Y75.475 E8.37623
G1 X111.475 Y75.475 E9.65874
G1 X111.475 Y87.525 E10.94125
G1 F2700 E5.94125
G0 F6000 X110.975 Y87.525
G0 X111.047 Y87.953
G0 X114.724 Y88.695
G0 X114.724 Y86.46
G0 X124.721 Y100.54
G0 X124.721 Y98.265
G0 X135.953 Y99.047
G0 X136.325 Y110.675
;TYPE:WALL-INNER
G1 F2700 E10.94125
G1 F1200 X136.325 Y98.675 E12.21844
G1 X98.675 Y98.675 E16.22562
G1 X98.675 Y110.675 E17.50281
G1 X88.325 Y110.675 E18.60439
G1 X88.325 Y88.325 E20.98315
G1 X100.325 Y88.325 E22.26034
G1 X100.325 Y74.675 E23.71315
G1 X88.325 Y74.675 E24.99034
G1 X88.325 Y52.325 E27.3691
G1 X98.675 Y52.325 E28.47068
G1 X98.675 Y64.325 E29.74786
G1 X136.325 Y64.325 E33.75505
G1 X136.325 Y52.325 E35.03224
G1 X146.675 Y52.325 E36.13381
G1 X146.675 Y74.675 E38.51258
G1 X134.675 Y74.675 E39.78976
G1 X134.675 Y88.325 E41.24257
G1 X146.675 Y88.325 E42.51976
G1 X146.675 Y110.675 E44.89852
G1 X136.325 Y110.675 E46.0001
G0 F6000 X135.995 Y111.005
G0 X135.525 Y111.475
;TYPE:WALL-OUTER
G1 F1200 X135.525 Y99.475 E47.27729
G1 X99.475 Y99.475 E51.11418
G1 X99.475 Y111.475 E52.39136
G1 X87.525 Y111.475 E53.66323
G1 X87.525 Y87.525 E56.21229
G1 X99.525 Y87.525 E57.48948
G1 X99.525 Y75.475 E58.77199
G1 X87.525 Y75.475 E60.04918
G1 X87.525 Y51.525 E62.59823
G1 X99.475 Y51.525 E63.8701
G1 X99.475 Y63.525 E65.14729
G1 X135.525 Y63.525 E68.98418
G1 X135.525 Y51.525 E70.26137
G1 X147.475 Y51.525 E71.53324
G1 X147.475 Y75.475 E74.08229
G1 X135.475 Y75.475 E75.35948
G1 X135.475 Y87.525 E76.64199
G1 X147.475 Y87.525 E77.91918
G1 X147.475 Y111.475 E80.46824
G1 X135.525 Y111.475 E81.74011
G0 F6000 X135.995 Y111.005
G0 X136.635 Y109.885
G0 X137.115 Y109.885
;TYPE:SKIN
G1 F1200 X137.115 Y97.885 E83.0173
G1 X97.885 Y97.885 E87.19264
G1 X97.885 Y109.885 E88.46983
G1 X89.115 Y109.885 E89.40324
G1 X89.115 Y89.115 E91.61384
G1 X101.115 Y89.115 E92.89103
G1 X101.115 Y73.885 E94.512
G1 X89.115 Y73.885 E95.78919
G1 X89.115 Y53.115 E97.99979
G1 X97.885 Y53.115 E98.9332
G1 X97.885 Y65.115 E100.21039
G1 X137.115 Y65.115 E104.38574
G1 X137.115 Y53.115 E105.66293
G1 X145.885 Y53.115 E106.59634
G1 X145.885 Y73.885 E108.80694
G1 X133.885 Y73.885 E110.08413
G1 X133.885 Y89.115 E111.70509
G1 X145.885 Y89.115 E112.98228
G1 X145.885 Y109.885 E115.19289
G1 X137.115 Y109.885 E116.1263
G1 F2700 E111.1263
G0 F6000 X136.635 Y109.885
G0 X135.953 Y99.047
G0 X124.635 Y98.265
G0 X124.635 Y100.54
G0 X122.472 Y86.472
G0 X124.635 Y88.715
G0 X125.115 Y89.115
G1 F2700 E116.1263
G1 F1200 X125.115 Y73.885 E117.74726
G1 X109.885 Y73.885 E119.36823
G1 X109.885 Y89.115 E120.9892
G1 X125.115 Y89.115 E122.61016
G1 F2700 E117.61016
G0 F6000 X124.635 Y88.665
G0 X124.695 Y77.602
G0 X122.46 Y77.602
G0 X124.721 Y62.46
G0 X124.721 Y64.735
G0 X126.971 Y64.743
G0 X136.707 Y64.707
G0 X136.77 Y58.715
G0 X146.365 Y53.923
G0 X145.564 Y53.923
G1 F2700 E122.61016
G1 F1200 X145.076 Y53.435 E122.68361
G0 F6000 X145.076 Y52.635
G0 X143.945 Y52.635
G0 X143.945 Y53.435
G1 F1200 X145.564 Y55.054 E122.9273
G0 F6000 X146.365 Y55.054
G0 X146.365 Y56.185
G0 X145.564 Y56.185
G1 F1200 X142.813 Y53.435 E123.3413
G0 F6000 X142.813 Y52.635
G0 X141.682 Y52.635
G0 X141.682 Y53.435
G1 F1200 X145.564 Y57.317 E123.92562
G0 F6000 X146.365 Y57.317
G0 X146.365 Y58.448
G0 X145.564 Y58.448
G1 F1200 X140.55 Y53.435 E124.68024
G0 F6000 X140.55 Y52.635
G0 X139.419 Y52.635
G0 X139.419 Y53.435
G1 F1200 X145.564 Y59.58 E125.60517
G0 F6000 X146.365 Y59.58
G0 X146.365 Y60.711
G0 X145.564 Y60.711
G1 F1200 X138.288 Y53.435 E126.70034
G0 F6000 X137.433 Y53.712
G1 F1200 X145.564 Y61.842 E127.92413
G0 F6000 X146.365 Y61.842
G0 X146.365 Y62.974
G0 X145.564 Y62.974
G1 F1200 X137.433 Y54.843 E129.14799
G0 F6000 X136.635 Y54.843
G0 X136.635 Y55.975
G0 X137.433 Y55.975
G1 F1200 X145.564 Y64.105 E130.37178
G0 F6000 X146.365 Y64.105
G0 X146.365 Y65.236
G0 X145.564 Y65.236
G1 F1200 X137.433 Y57.106 E131.59557
G0 F6000 X136.635 Y57.106
G0 X136.635 Y58.238
G0 X137.433 Y58.238
G1 F1200 X145.564 Y66.368 E132.81936
G0 F6000 X146.365 Y66.368
G0 X146.365 Y67.499
G0 X145.564 Y67.499
G1 F1200 X137.433 Y59.369 E134.04315
G0 F6000 X136.635 Y59.369
G0 X136.635 Y60.5
G0 X137.433 Y60.5
G1 F1200 X145.564 Y68.631 E135.26701
G0 F6000 X146.365 Y68.631
G0 X146.365 Y69.762
G0 X145.564 Y69.762
G1 F1200 X137.433 Y61.632 E136.4908
G0 F6000 X136.635 Y61.632
G0 X136.635 Y62.763
G0 X137.433 Y62.763
G1 F1200 X145.564 Y70.893 E137.71459
G0 F6000 X146.365 Y70.893
G0 X146.365 Y72.025
G0 X145.564 Y72.025
G1 F1200 X137.433 Y63.894 E138.93845
G0 F6000 X136.635 Y63.894
G0 X136.665 Y64.665
G0 X137.433 Y65.026
G1 F1200 X145.564 Y73.156 E140.16224
G0 F6000 X144.841 Y73.565
G1 F1200 X136.711 Y65.434 E141.38603
G0 F6000 X136.711 Y64.635
G0 X135.579 Y64.635
G0 X135.579 Y65.434
G1 F1200 X143.71 Y73.565 E142.60989
G0 F6000 X143.71 Y74.365
G0 X142.578 Y74.365
G0 X142.578 Y73.565
G1 F1200 X134.448 Y65.434 E143.83368
G0 F6000 X134.448 Y64.635
G0 X133.317 Y64.635
G0 X133.317 Y65.434
G1 F1200 X141.447 Y73.565 E145.05747
G0 F6000 X141.447 Y74.365
G0 X140.316 Y74.365
G0 X140.316 Y73.565
G1 F1200 X132.185 Y65.434 E146.28133
G0 F6000 X132.185 Y64.635
G0 X131.054 Y64.635
G0 X131.054 Y65.434
G1 F1200 X139.184 Y73.565 E147.50512
G0 F6000 X139.184 Y74.365
G0 X138.053 Y74.365
G0 X138.053 Y73.565
G1 F1200 X129.923 Y65.434 E148.72891
G0 F6000 X129.923 Y64.635
G0 X128.791 Y64.635
G0 X128.791 Y65.434
G1 F1200 X136.922 Y73.565 E149.95277
G0 F6000 X136.922 Y74.365
G0 X135.79 Y74.365
G0 X135.79 Y73.565
G1 F1200 X127.66 Y65.434 E151.17656
G0 F6000 X127.66 Y64.635
G0 X126.528 Y64.635
G0 X126.528 Y65.434
G1 F1200 X134.659 Y73.565 E152.40042
G0 F6000 X134.659 Y74.365
G0 X134.335 Y74.335
G0 X133.564 Y73.602
G1 F1200 X125.397 Y65.434 E153.62978
G0 F6000 X125.397 Y64.635
G0 X124.266 Y64.635
G0 X124.266 Y65.434
G1 F1200 X133.564 Y74.733 E155.02937
G0 F6000 X134.365 Y74.733
G0 X134.365 Y75.864
G0 X133.564 Y75.864
G1 F1200 X123.134 Y65.434 E156.59928
G0 F6000 X123.134 Y64.635
G0 X122.003 Y64.635
G0 X122.003 Y65.434
G1 F1200 X133.564 Y76.996 E158.33949
G0 F6000 X134.365 Y76.996
G0 X134.365 Y78.127
G0 X133.564 Y78.127
G1 F1200 X120.872 Y65.434 E160.24994
G0 F6000 X120.872 Y64.635
G0 X119.74 Y64.635
G0 X119.74 Y65.434
G1 F1200 X133.564 Y79.258 E162.33071
G0 F6000 X134.365 Y79.258
G0 X134.365 Y80.39
G0 X133.564 Y80.39
G1 F1200 X118.609 Y65.434 E164.58178
G0 F6000 X118.609 Y64.635
G0 X117.478 Y64.635
G0 X117.478 Y65.434
G1 F1200 X133.564 Y81.521 E167.00309
G0 F6000 X134.365 Y81.521
G0 X134.365 Y82.653
G0 X133.564 Y82.653
G1 F1200 X125.434 Y74.522 E168.22688
G0 F6000 X124.635 Y74.522
G0 X124.635 Y75.654
G0 X125.434 Y75.654
G1 F1200 X133.564 Y83.784 E169.45059
G0 F6000 X134.365 Y83.784
G0 X134.365 Y84.915
G0 X133.564 Y84.915
G1 F1200 X125.434 Y76.785 E170.67431
G0 F6000 X124.635 Y76.785
G0 X124.635 Y77.916
G0 X125.434 Y77.916
G1 F1200 X133.564 Y86.047 E171.8981
G0 F6000 X134.365 Y86.047
G0 X134.365 Y87.178
G0 X133.564 Y87.178
G1 F1200 X125.434 Y79.048 E173.12181
G0 F6000 X124.635 Y79.048
G0 X124.635 Y80.179
G0 X125.434 Y80.179
G1 F1200 X133.564 Y88.309 E174.34552
G0 F6000 X134.365 Y88.309
G0 X134.69 Y88.635
G0 X134.69 Y89.435
G1 F1200 X145.564 Y100.309 E175.98226
G0 F6000 X146.365 Y100.309
G0 X146.365 Y99.178
G0 X145.564 Y99.178
G1 F1200 X135.821 Y89.435 E177.44875
G0 F6000 X135.821 Y88.635
G0 X136.953 Y88.635
G0 X136.953 Y89.435
G1 F1200 X145.564 Y98.046 E178.74487
G0 F6000 X146.365 Y98.046
G0 X146.365 Y96.915
G0 X145.564 Y96.915
G1 F1200 X138.084 Y89.435 E179.87074
G0 F6000 X138.084 Y88.635
G0 X139.215 Y88.635
G0 X139.215 Y89.435
G1 F1200 X145.564 Y95.783 E180.82631
G0 F6000 X146.365 Y95.783
G0 X146.365 Y94.652
G0 X145.564 Y94.652
G1 F1200 X140.347 Y89.435 E181.61156
G0 F6000 X140.347 Y88.635
G0 X141.478 Y88.635
G0 X141.478 Y89.435
G1 F1200 X145.564 Y93.521 E182.22658
G0 F6000 X146.365 Y93.521
G0 X146.365 Y92.389
G0 X145.564 Y92.389
G1 F1200 X142.61 Y89.435 E182.67121
G0 F6000 X142.61 Y88.635
G0 X143.741 Y88.635
G0 X143.741 Y89.435
G1 F1200 X145.564 Y91.258 E182.9456
G0 F6000 X146.365 Y91.258
G0 X146.365 Y90.127
G0 X145.564 Y90.127
G1 F1200 X144.872 Y89.435 E183.04976
G1 F2700 E178.04976
G0 F6000 X144.872 Y88.635
G0 X146.293 Y88.707
G0 X146.293 Y110.293
G0 X136.707 Y110.293
G0 X136.665 Y98.335
G0 X137.162 Y97.564
G1 F2700 E183.04976
G1 F1200 X125.434 Y85.836 E184.81504
G0 F6000 X124.635 Y85.836
G0 X124.635 Y84.705
G0 X125.434 Y84.705
G1 F1200 X145.564 Y104.834 E187.8449
G0 F6000 X146.365 Y104.834
G0 X146.365 Y103.703
G0 X145.564 Y103.703
G1 F1200 X125.434 Y83.573 E190.87483
G0 F6000 X124.635 Y83.573
G0 X124.635 Y82.442
G0 X125.434 Y82.442
G1 F1200 X145.564 Y102.572 E193.90476
G0 F6000 X146.365 Y102.572
G0 X146.365 Y101.44
G0 X145.564 Y101.44
G1 F1200 X125.434 Y81.31 E196.93469
G0 F6000 X124.635 Y81.31
G0 X124.635 Y86.967
G0 X125.434 Y86.967
G1 F1200 X136.031 Y97.564 E198.52973
G0 F6000 X136.031 Y98.365
G0 X134.899 Y98.365
G0 X134.899 Y97.564
G1 F1200 X125.434 Y88.099 E199.95438
G0 F6000 X124.635 Y88.099
G0 X124.665 Y88.665
G0 X125.434 Y89.23
G1 F1200 X133.768 Y97.564 E201.2088
G0 F6000 X133.768 Y98.365
G0 X132.636 Y98.365
G0 X132.636 Y97.564
G1 F1200 X124.508 Y89.435 E202.43229
G0 F6000 X124.508 Y88.635
G0 X123.376 Y88.635
G0 X123.376 Y89.435
G1 F1200 X131.505 Y97.564 E203.65585
G0 F6000 X131.505 Y98.365
G0 X130.374 Y98.365
G0 X130.374 Y97.564
G1 F1200 X122.245 Y89.435 E204.87942
G0 F6000 X122.245 Y88.635
G0 X121.113 Y88.635
G0 X121.113 Y89.435
G1 F1200 X129.242 Y97.564 E206.10298
G0 F6000 X129.242 Y98.365
G0 X128.111 Y98.365
G0 X128.111 Y97.564
G1 F1200 X119.982 Y89.435 E207.32654
G0 F6000 X119.982 Y88.635
G0 X118.851 Y88.635
G0 X118.851 Y89.435
G1 F1200 X126.98 Y97.564 E208.5501
G0 F6000 X126.98 Y98.365
G0 X125.848 Y98.365
G0 X125.848 Y97.564
G1 F1200 X117.719 Y89.435 E209.77366
G0 F6000 X117.719 Y88.635
G0 X116.588 Y88.635
G0 X116.588 Y89.435
G1 F1200 X124.717 Y97.564 E210.99723
G0 F6000 X124.717 Y98.365
G0 X123.586 Y98.365
G0 X123.586 Y97.564
G1 F1200 X115.457 Y89.435 E212.22079
G0 F6000 X115.457 Y88.635
G0 X114.325 Y88.635
G0 X114.325 Y89.435
G1 F1200 X122.454 Y97.564 E213.44435
G0 F6000 X122.454 Y98.365
G0 X121.323 Y98.365
G0 X121.323 Y97.564
G1 F1200 X113.194 Y89.435 E214.66791
G0 F6000 X113.194 Y88.635
G0 X112.062 Y88.635
G0 X112.062 Y89.435
G1 F1200 X120.191 Y97.564 E215.89148
G0 F6000 X120.191 Y98.365
G0 X119.06 Y98.365
G0 X119.06 Y97.564
G1 F1200 X110.931 Y89.435 E217.11504
G0 F6000 X110.931 Y88.635
G0 X110.335 Y88.665
G0 X109.8 Y89.435
G1 F1200 X117.929 Y97.564 E218.3386
G0 F6000 X117.929 Y98.365
G0 X116.797 Y98.365
G0 X116.797 Y97.564
G1 F1200 X101.434 Y82.201 E220.65101
G0 F6000 X100.635 Y82.201
G0 X100.635 Y83.332
G0 X101.434 Y83.332
G1 F1200 X115.666 Y97.564 E222.79319
G0 F6000 X115.666 Y98.365
G0 X114.535 Y98.365
G0 X114.535 Y97.564
G1 F1200 X101.434 Y84.463 E224.76513
G0 F6000 X100.635 Y84.463
G0 X100.635 Y85.595
G0 X101.434 Y85.595
G1 F1200 X113.403 Y97.564 E226.56668
G0 F6000 X113.403 Y98.365
G0 X112.272 Y98.365
G0 X112.272 Y97.564
G1 F1200 X101.434 Y86.726 E228.19799
G0 F6000 X100.635 Y86.726
G0 X100.635 Y87.858
G0 X101.434 Y87.858
G1 F1200 X111.14 Y97.564 E229.65892
G0 F6000 X111.14 Y98.365
G0 X110.009 Y98.365
G0 X110.009 Y97.564
G1 F1200 X101.434 Y88.989 E230.94962
G0 F6000 X100.748 Y89.434
G1 F1200 X108.878 Y97.564 E232.17333
G0 F6000 X108.878 Y98.365
G0 X107.746 Y98.365
G0 X107.746 Y97.564
G1 F1200 X99.617 Y89.434 E233.39697
G0 F6000 X99.617 Y88.635
G0 X98.485 Y88.635
G0 X98.485 Y89.434
G1 F1200 X106.615 Y97.564 E234.62068
G0 F6000 X106.615 Y98.365
G0 X105.484 Y98.365
G0 X105.484 Y97.564
G1 F1200 X97.354 Y89.434 E235.84439
G0 F6000 X97.354 Y88.635
G0 X96.223 Y88.635
G0 X96.223 Y89.434
G1 F1200 X104.352 Y97.564 E237.06803
G0 F6000 X104.352 Y98.365
G0 X103.221 Y98.365
G0 X103.221 Y97.564
G1 F1200 X95.091 Y89.434 E238.29174
G0 F6000 X95.091 Y88.635
G0 X93.96 Y88.635
G0 X93.96 Y89.434
G1 F1200 X102.089 Y97.564 E239.51538
G0 F6000 X102.089 Y98.365
G0 X100.958 Y98.365
G0 X100.958 Y97.564
G1 F1200 X92.828 Y89.434 E240.73909
G0 F6000 X92.828 Y88.635
G0 X91.697 Y88.635
G0 X91.697 Y89.434
G1 F1200 X99.827 Y97.564 E241.96281
G0 F6000 X99.827 Y98.365
G0 X98.695 Y98.365
G0 X98.695 Y97.564
G1 F1200 X90.566 Y89.434 E243.18644
G0 F6000 X90.566 Y88.635
G0 X89.434 Y88.635
G0 X89.434 Y89.434
G1 F1200 X97.564 Y97.564 E244.41016
G0 F6000 X98.335 Y98.335
G0 X98.365 Y98.696
G0 X97.565 Y98.696
G1 F1200 X89.434 Y90.566 E245.63395
G0 F6000 X88.635 Y90.566
G0 X88.635 Y91.697
G0 X89.434 Y91.697
G1 F1200 X97.565 Y99.827 E246.85773
G0 F6000 X98.365 Y99.827
G0 X98.365 Y100.959
G0 X97.565 Y100.959
G1 F1200 X89.434 Y92.828 E248.0816
G0 F6000 X88.635 Y92.828
G0 X88.635 Y93.96
G0 X89.434 Y93.96
G1 F1200 X97.565 Y102.09 E249.30539
G0 F6000 X98.365 Y102.09
G0 X98.365 Y103.222
G0 X97.565 Y103.222
G1 F1200 X89.434 Y95.091 E250.52925
G0 F6000 X88.635 Y95.091
G0 X88.635 Y96.223
G0 X89.434 Y96.223
G1 F1200 X97.565 Y104.353 E251.75304
G0 F6000 X98.365 Y104.353
G0 X98.365 Y105.484
G0 X97.565 Y105.484
G1 F1200 X89.434 Y97.354 E252.97683
G0 F6000 X88.635 Y97.354
G0 X88.635 Y98.485
G0 X89.434 Y98.485
G1 F1200 X97.565 Y106.616 E254.20069
G0 F6000 X98.365 Y106.616
G0 X98.365 Y107.747
G0 X97.565 Y107.747
G1 F1200 X89.434 Y99.617 E255.42448
G0 F6000 X88.635 Y99.617
G0 X88.635 Y100.748
G0 X89.434 Y100.748
G1 F1200 X97.565 Y108.878 E256.64826
G0 F6000 X97.119 Y109.564
G1 F1200 X89.434 Y101.879 E257.805
G0 F6000 X88.635 Y101.879
G0 X88.635 Y103.011
G0 X89.434 Y103.011
G1 F1200 X95.988 Y109.564 E258.79142
G0 F6000 X95.988 Y110.365
G0 X94.856 Y110.365
G0 X94.856 Y109.564
G1 F1200 X89.434 Y104.142 E259.60753
G0 F6000 X88.635 Y104.142
G0 X88.635 Y105.274
G0 X89.434 Y105.274
G1 F1200 X93.725 Y109.564 E260.25333
G0 F6000 X93.725 Y110.365
G0 X92.594 Y110.365
G0 X92.594 Y109.564
G1 F1200 X89.434 Y106.405 E260.72889
G0 F6000 X88.635 Y106.405
G0 X88.635 Y107.536
G0 X89.434 Y107.536
G1 F1200 X91.462 Y109.564 E261.03414
G0 F6000 X91.462 Y110.365
G0 X90.331 Y110.365
G0 X90.331 Y109.564
G1 F1200 X89.434 Y108.668 E261.16908
G1 F2700 E256.16908
G0 F6000 X88.635 Y108.668
G0 X88.707 Y110.293
G0 X98.293 Y110.293
G0 X99.047 Y99.047
G0 X108.71 Y99.056
G0 X110.365 Y98.265
G0 X110.365 Y100.54
G0 X112.528 Y86.472
G0 X110.365 Y88.715
G0 X109.564 Y89.2
G1 F2700 E261.16908
G1 F1200 X101.434 Y81.069 E262.39287
G0 F6000 X100.635 Y81.069
G0 X100.635 Y79.938
G0 X101.434 Y79.938
G1 F1200 X109.564 Y88.068 E263.61658
G0 F6000 X110.365 Y88.068
G0 X110.365 Y86.937
G0 X109.564 Y86.937
G1 F1200 X101.434 Y78.807 E264.84029
G0 F6000 X100.635 Y78.807
G0 X100.635 Y77.675
G0 X101.434 Y77.675
G1 F1200 X109.564 Y85.805 E266.06401
G0 F6000 X110.365 Y85.805
G0 X110.365 Y84.674
G0 X109.564 Y84.674
G1 F1200 X101.434 Y76.544 E267.28772
G0 F6000 X100.635 Y76.544
G0 X100.635 Y75.412
G0 X101.434 Y75.412
G1 F1200 X109.564 Y83.543 E268.51151
G0 F6000 X110.365 Y83.543
G0 X110.365 Y82.411
G0 X109.564 Y82.411
G1 F1200 X101.434 Y74.281 E269.73522
G0 F6000 X100.635 Y74.281
G0 X100.717 Y74.365
G0 X100.717 Y73.564
G1 F1200 X89.434 Y62.281 E271.43352
G0 F6000 X88.635 Y62.281
G0 X88.635 Y63.412
